X: 1
T: The Sally Gardens 2x
T: the Maids of the Mourne Shore
R: reel
M: 4/4
L: 1/8
Z: Contributed 2016-01-27 13:56:43 by Charlie Muse creatconst@gmail.com
K: Gmaj
|:G2GA BAGB|dBeB dBAB|d2Bd efge|dBAB GEDE|
GFGA BAGB|d2eB dBAB|d2Bd efge|dBAB G4:|
|:dggf g2de|g2bg ageg|eaag a2eg|a2bg ageg|
dggf g2de|g2bg ageg|d2Bd efge|dBAB G4:|

